contributed-vectors/zenge.svg

<?xml version="1.0" encoding="UTF-8" standalone="no"?>
<svg
   xmlns:dc="http://purl.org/dc/elements/1.1/"
   xmlns:cc="http://creativecommons.org/ns#"
   xmlns:rdf="http://www.w3.org/1999/02/22-rdf-syntax-ns#"
   xmlns:svg="http://www.w3.org/2000/svg"
   xmlns="http://www.w3.org/2000/svg"
   xmlns:sodipodi="http://sodipodi.sourceforge.net/DTD/sodipodi-0.dtd"
   xmlns:inkscape="http://www.inkscape.org/namespaces/inkscape"
   viewBox="0 0 192 192"
   version="1.1"
   id="svg16"
   sodipodi:docname="zenge.svg"
   inkscape:version="0.92.4 (5da689c313, 2019-01-14)">
  <metadata
     id="metadata20">
    <rdf:RDF>
      <cc:Work
         rdf:about="">
        <dc:format>image/svg+xml</dc:format>
        <dc:type
           rdf:resource="http://purl.org/dc/dcmitype/StillImage" />
        <dc:title></dc:title>
      </cc:Work>
    </rdf:RDF>
  </metadata>
  <sodipodi:namedview
     pagecolor="#ffffff"
     bordercolor="#666666"
     borderopacity="1"
     objecttolerance="10"
     gridtolerance="10"
     guidetolerance="10"
     inkscape:pageopacity="0"
     inkscape:pageshadow="2"
     inkscape:window-width="1920"
     inkscape:window-height="1017"
     id="namedview18"
     showgrid="false"
     inkscape:zoom="3.4766083"
     inkscape:cx="105.39012"
     inkscape:cy="102.30275"
     inkscape:window-x="-8"
     inkscape:window-y="-8"
     inkscape:window-maximized="1"
     inkscape:current-layer="svg16"
     inkscape:snap-global="true">
    <inkscape:grid
       type="xygrid"
       id="grid827"
       spacingx="4"
       spacingy="4" />
  </sodipodi:namedview>
  <defs
     id="defs4">
    <style
       id="style2">.a{fill:none;stroke:#b1b5bd;stroke-linecap:round;stroke-linejoin:round;isolation:isolate;opacity:0.63;}</style>
  </defs>
  <rect
     class="a"
     x="8"
     y="32"
     width="176"
     height="128"
     rx="10"
     id="rect14"
     style="fill:#fcecdc;stroke:none;opacity:1" />
  <rect
     style="opacity:1;vector-effect:none;fill:#ffffff;fill-opacity:1;fill-rule:evenodd;stroke:none;stroke-width:4;stroke-linecap:round;stroke-linejoin:round;stroke-miterlimit:4;stroke-dasharray:none;paint-order:stroke fill markers"
     id="rect833"
     width="96"
     height="96"
     x="20"
     y="24"
     ry="48" />
  <path
     inkscape:connector-curvature="0"
     style="opacity:1;fill:#f8c18c;stroke:none;stroke-width:1px;stroke-linecap:butt;stroke-linejoin:miter;stroke-opacity:1"
     d="M 24,64 C 18.037152,64 8,72 8,72 v 78 c 0,5.54 4.46,10 10,10 h 156 c 5.54,0 10,-4.46 10,-10 V 84 c 0,0 -61.59311,0.200394 -92,-4 C 68.933379,76.813588 48,64 24,64 Z"
     id="path835-7" />
  <path
     style="fill:#ffffff;stroke:none;stroke-width:1px;stroke-linecap:butt;stroke-linejoin:miter;stroke-opacity:1;opacity:0.5"
     d="M 24 64 C 18.037152 64 8 72 8 72 L 8 150 C 8 155.54 12.46 160 18 160 L 174 160 C 179.54 160 184 155.54 184 150 L 184 84 C 184 84 122.40689 84.200394 92 80 C 68.933379 76.813588 48 64 24 64 z "
     id="path835" />
  <path
     style="fill:#71a372;stroke:none;stroke-width:1px;stroke-linecap:butt;stroke-linejoin:miter;stroke-opacity:1"
     d="m 59.684606,89.457532 -2.013456,-11.649285 8.485281,3.45164 3.164003,-3.020185 -1.72582,-6.90328 7.622372,2.58873 1.006728,-1.72582 1.006728,-9.635828 8.916737,5.608915 1.869638,-1.150547 1.006728,-10.786374 8.916737,6.184188 4.889818,-9.779646 6.61565,8.916736 h 7.62237 l 9.49201,-10.930193 4.45837,13.950378 0.71909,-1.72582 13.66274,-5.465097 1.582,16.251472 17.40202,17.545836 9.34819,-1.72582 -5.60891,8.341463 -54.93861,-27.325483 z"
     id="path971"
     inkscape:connector-curvature="0" />
  <path
     style="fill:#71a372;stroke:none;stroke-width:1px;stroke-linecap:butt;stroke-linejoin:miter;stroke-opacity:1"
     d="m 44.7275,103.40791 5.752733,9.06055 3.164004,-10.2111 z"
     id="path969"
     inkscape:connector-curvature="0" />
  <path
     style="fill:#98dc9a;stroke:none;stroke-width:1px;stroke-linecap:butt;stroke-linejoin:miter;stroke-opacity:1"
     d="m 50.625,108.87305 c 0,0 13.202114,-49.455224 62.41621,-49.905004 46.54364,-0.425374 63.28006,53.212784 63.28006,53.212784 l -57.38377,31.92855 -30.201591,-0.57616 -27.469301,-6.328 -13.518923,-21.1413 z"
     id="path967"
     inkscape:connector-curvature="0"
     sodipodi:nodetypes="cscccccc" />
  <path
     style="fill:#f8c18c;stroke:none;stroke-width:1px;stroke-linecap:butt;stroke-linejoin:miter;stroke-opacity:1"
     d="M 8 100.50391 L 8 150 C 8 155.54 12.46 160 18 160 L 174 160 C 179.54 160 184 155.54 184 150 L 184 108.84375 C 177.26042 110.93625 147.34091 120.26484 130.98242 126.10156 C 108.80456 134.01464 101.45639 147.60208 84.814453 145.83008 C 70.112304 144.26462 66.015819 130.57319 48.609375 120.20312 C 35.711442 112.51905 8.2066992 100.5935 8 100.50391 z "
     id="path868" />
  <path
     style="fill:#f8c18c;stroke:none;stroke-width:1px;stroke-linecap:butt;stroke-linejoin:miter;stroke-opacity:1"
     d="m 45.158203,111.75 -0.861328,2.73242 c 0,0 4.111798,14.76618 3.738281,22.29102 C 47.171552,154.1715 41.365234,160 41.365234,160 H 131.125 l 3.48828,-10.2832 -15.67578,-5.60742 -26.894531,0.42968 -24.160157,-6.03906 -1.15039,-7.19141 7.765625,-9.06054 -7.478516,-2.87696 -14.814453,-3.73828 z"
     id="path888"
     inkscape:connector-curvature="0"
     sodipodi:nodetypes="ccsccccccccccc" />
  <path
     style="fill:#ba6561;stroke:none;stroke-width:1px;stroke-linecap:butt;stroke-linejoin:miter;stroke-opacity:1;opacity:0.25"
     d="m 45.158203,111.75 -0.861328,2.73242 c 0,0 4.111798,14.76618 3.738281,22.29102 C 47.171552,154.1715 41.365234,160 41.365234,160 H 131.125 l 3.48828,-10.2832 -15.67578,-5.60742 -26.894531,0.42968 -24.160157,-6.03906 -1.15039,-7.19141 7.765625,-9.06054 -7.478516,-2.87696 -14.814453,-3.73828 z"
     id="path888-2"
     inkscape:connector-curvature="0"
     sodipodi:nodetypes="ccsccccccccccc" />
  <path
     style="fill:#f8c18c;stroke:none;stroke-width:1px;stroke-linecap:butt;stroke-linejoin:miter;stroke-opacity:1"
     d="M 63.279297 133.4668 C 63.279297 133.4668 65.869141 140.02648 65.869141 145.97852 C 65.869141 152.92245 61.53541 158.01621 59.539062 160 L 99.826172 160 L 114.04883 155.90234 L 117.64258 148.42383 L 115.77344 144.10938 L 86.867188 144.39648 L 63.279297 133.4668 z "
     id="path890" />
  <path
     inkscape:connector-curvature="0"
     style="fill:#ba6561;stroke:none;stroke-width:1px;stroke-linecap:butt;stroke-linejoin:miter;stroke-opacity:1;opacity:0.5"
     d="m 63.279297,133.4668 c 0,0 2.589844,6.55968 2.589844,12.51172 0,6.94393 -4.333731,12.03769 -6.330079,14.02148 h 40.28711 l 14.222658,-4.09766 3.59375,-7.47851 -1.86914,-4.31445 -28.906252,0.2871 z"
     id="path890-8" />
  <path
     style="fill:#fcecdc;stroke:none;stroke-width:1px;stroke-linecap:butt;stroke-linejoin:miter;stroke-opacity:1"
     d="M 50.625 108.87305 C 50.625 108.87305 44.823242 109.83834 45.158203 111.89258 C 46.264242 118.67565 70.498387 120.82035 70.466797 122.78711 C 70.425188 125.37724 62.337606 129.33902 63.337891 134.00977 C 64.995034 141.74765 74.354442 144.35275 82.982422 146.23633 C 100.40364 150.03956 116.54287 145.44673 116.33984 147.86523 C 116.06843 151.09819 110.75789 151.41789 107.59375 152.13477 C 99.98957 153.85761 91.969927 151.24716 84.203125 151.93164 C 69.593452 153.21916 58.561451 158.22119 55.015625 160 L 115.9375 160 L 116.06055 159.92773 C 116.06055 159.92773 135.36964 156.04855 134.4707 148.71094 C 132.94112 136.22578 109.62016 141.47087 97.078125 140.51367 C 88.951889 139.89348 74.41362 139.41383 71.333984 133.32227 C 69.386276 129.46968 79.397139 126.11679 77.806641 122.10352 C 76.03888 117.64297 55.685581 117.54944 50.193359 112.03711 C 49.442072 111.28307 50.625 108.87305 50.625 108.87305 z "
     id="path886" />
  <path
     style="fill:#71a372;stroke:none;stroke-width:1px;stroke-linecap:butt;stroke-linejoin:miter;stroke-opacity:1"
     d="M 66.012613,104.27082 V 93.628263 l 10.067283,2.301094 c 0,0 0.837453,6.121403 -2.732548,8.053823 -4.165806,2.25492 -7.334735,0.28764 -7.334735,0.28764 z"
     id="path973"
     inkscape:connector-curvature="0"
     sodipodi:nodetypes="cccsc" />
  <path
     style="fill:#71a372;stroke:none;stroke-width:1px;stroke-linecap:butt;stroke-linejoin:miter;stroke-opacity:1"
     d="m 85.284269,93.196808 2.732548,-13.806559 11.074011,8.485281 c 0,0 0.822683,6.22426 -4.602186,8.197645 -6.159413,2.240587 -9.204373,-2.876367 -9.204373,-2.876367 z"
     id="path975"
     inkscape:connector-curvature="0"
     sodipodi:nodetypes="cccsc" />
  <path
     style="fill:#71a372;stroke:none;stroke-width:1px;stroke-linecap:butt;stroke-linejoin:miter;stroke-opacity:1"
     d="m 97.077372,76.226246 2.444911,-12.08074 7.910007,8.197645 c 0,0 -0.0136,3.953228 -4.02691,5.465096 -4.056525,1.528165 -6.328008,-1.582001 -6.328008,-1.582001 z"
     id="path977"
     inkscape:connector-curvature="0"
     sodipodi:nodetypes="cccsc" />
  <path
     style="fill:#71a372;stroke:none;stroke-width:1px;stroke-linecap:butt;stroke-linejoin:miter;stroke-opacity:1"
     d="m 117.21194,78.527339 12.36837,-7.334735 4.45837,13.231286 c 0,0 -3.68725,6.237542 -10.49874,3.595458 -6.63961,-2.575412 -6.328,-9.492009 -6.328,-9.492009 z"
     id="path979"
     inkscape:connector-curvature="0"
     sodipodi:nodetypes="cccsc" />
  <path
     style="fill:#71a372;stroke:none;stroke-width:1px;stroke-linecap:butt;stroke-linejoin:miter;stroke-opacity:1"
     d="m 149.42724,78.38352 14.0942,-5.608914 -3.164,12.943649 c 0,0 -3.84607,3.185659 -8.91674,-0.575273 -3.01559,-2.236678 -2.01346,-6.759462 -2.01346,-6.759462 z"
     id="path981"
     inkscape:connector-curvature="0"
     sodipodi:nodetypes="cccsc" />
  <path
     style="fill:#71a372;stroke:none;stroke-width:1px;stroke-linecap:butt;stroke-linejoin:miter;stroke-opacity:1"
     d="m 157.91252,101.39445 10.78638,2.58873 -7.47855,7.19092 c 0,0 -3.98511,-0.25207 -5.17746,-4.45837 -0.81009,-2.85781 1.86963,-5.32128 1.86963,-5.32128 z"
     id="path983"
     inkscape:connector-curvature="0"
     sodipodi:nodetypes="cccsc" />
  <path
     style="fill:#71a372;stroke:none;stroke-width:1px;stroke-linecap:butt;stroke-linejoin:miter;stroke-opacity:1"
     d="m 140.22287,92.621535 9.77965,-2.58873 0.43145,9.923465 c 0,0 -4.42979,1.99286 -7.76619,-0.431455 -3.3364,-2.424319 -2.44491,-6.90328 -2.44491,-6.90328 z"
     id="path985"
     inkscape:connector-curvature="0"
     sodipodi:nodetypes="ccczc" />
  <rect
     style="opacity:1;vector-effect:none;fill:#71a372;fill-opacity:1;fill-rule:evenodd;stroke:none;stroke-width:4;stroke-linecap:round;stroke-linejoin:round;stroke-miterlimit:4;stroke-dasharray:none;paint-order:stroke fill markers"
     id="rect989"
     width="13.231286"
     height="13.231286"
     x="104.84356"
     y="99.668633"
     ry="6.615643" />
  <rect
     style="opacity:1;vector-effect:none;fill:#71a372;fill-opacity:1;fill-rule:evenodd;stroke:none;stroke-width:4;stroke-linecap:round;stroke-linejoin:round;stroke-miterlimit:4;stroke-dasharray:none;paint-order:stroke fill markers"
     id="rect991"
     width="12.512195"
     height="12.512195"
     x="126.99158"
     y="107.57864"
     ry="6.2560973" />
  <rect
     style="opacity:1;vector-effect:none;fill:#71a372;fill-opacity:1;fill-rule:evenodd;stroke:none;stroke-width:4;stroke-linecap:round;stroke-linejoin:round;stroke-miterlimit:4;stroke-dasharray:none;paint-order:stroke fill markers"
     id="rect993"
     width="12.943649"
     height="12.943649"
     x="90.893181"
     y="118.94029"
     ry="6.4718246" />
  <rect
     style="opacity:1;vector-effect:none;fill:#71a372;fill-opacity:1;fill-rule:evenodd;stroke:none;stroke-width:4;stroke-linecap:round;stroke-linejoin:round;stroke-miterlimit:4;stroke-dasharray:none;paint-order:stroke fill markers"
     id="rect995"
     width="12.512195"
     height="12.512195"
     x="75.073166"
     y="109.87974"
     ry="6.2560973" />
  <path
     style="opacity:1;vector-effect:none;fill:#ba6561;fill-opacity:1;fill-rule:evenodd;stroke:none;stroke-width:4;stroke-linecap:round;stroke-linejoin:round;stroke-miterlimit:4;stroke-dasharray:none;paint-order:stroke fill markers"
     d="M 121.34766 135.05078 A 3.0762713 3.0762713 0 0 0 118.27148 138.12695 A 3.0762713 3.0762713 0 0 0 120.31641 141.02148 C 119.84332 141.79041 119.34171 143.07204 119.28906 145.11914 C 119.26256 146.14978 119.27201 147.33142 121.52539 147.25391 C 122.93637 147.20541 123.44457 146.42911 123.45703 145.57617 C 123.48713 143.51475 122.74734 142.02603 122.09961 141.10742 A 3.0762713 3.0762713 0 0 0 124.42383 138.12695 A 3.0762713 3.0762713 0 0 0 121.34766 135.05078 z "
     id="path997" />
</svg>

<svg xmlns="http://www.w3.org/2000/svg" viewBox="0 0 192 192"><rect width="176" height="128" x="8" y="32" rx="10" style="fill:#fcecdc;stroke:none;opacity:1;stroke-linecap:round;stroke-linejoin:round;isolation:isolate"/><rect width="96" height="96" x="20" y="24" ry="48" style="opacity:1;vector-effect:none;fill:#fff;fill-opacity:1;fill-rule:evenodd;stroke:none;stroke-width:4;stroke-linecap:round;stroke-linejoin:round;stroke-miterlimit:4;stroke-dasharray:none;paint-order:stroke fill markers"/><path d="M24 64c-5.963 0-16 8-16 8v78c0 5.54 4.46 10 10 10h156c5.54 0 10-4.46 10-10V84s-61.593.2-92-4c-23.067-3.186-44-16-68-16Z" style="opacity:1;fill:#f8c18c;stroke:none;stroke-width:1px;stroke-linecap:butt;stroke-linejoin:miter;stroke-opacity:1"/><path d="M24 64c-5.963 0-16 8-16 8v78c0 5.54 4.46 10 10 10h156c5.54 0 10-4.46 10-10V84s-61.593.2-92-4c-23.067-3.186-44-16-68-16z" style="fill:#fff;stroke:none;stroke-width:1px;stroke-linecap:butt;stroke-linejoin:miter;stroke-opacity:1;opacity:.5"/><path d="m59.685 89.458-2.014-11.65 8.485 3.452 3.164-3.02-1.725-6.904 7.622 2.59 1.007-1.727 1.006-9.635 8.917 5.608 1.87-1.15 1.007-10.787 8.916 6.185 4.89-9.78 6.616 8.917h7.622l9.492-10.93 4.458 13.95.72-1.726 13.662-5.465 1.582 16.252 17.402 17.545 9.349-1.725-5.61 8.341-54.938-27.325zM44.727 103.408l5.753 9.06 3.164-10.21z" style="fill:#71a372;stroke:none;stroke-width:1px;stroke-linecap:butt;stroke-linejoin:miter;stroke-opacity:1"/><path d="M50.625 108.873s13.202-49.455 62.416-49.905c46.544-.425 63.28 53.213 63.28 53.213l-57.383 31.928-30.202-.576-27.47-6.328-13.518-21.141z" style="fill:#98dc9a;stroke:none;stroke-width:1px;stroke-linecap:butt;stroke-linejoin:miter;stroke-opacity:1"/><path d="M8 100.504V150c0 5.54 4.46 10 10 10h156c5.54 0 10-4.46 10-10v-41.156c-6.74 2.092-36.66 11.42-53.018 17.258-22.177 7.913-29.526 21.5-46.168 19.728-14.702-1.565-18.798-15.257-36.205-25.627-12.898-7.684-40.402-19.61-40.609-19.7z" style="fill:#f8c18c;stroke:none;stroke-width:1px;stroke-linecap:butt;stroke-linejoin:miter;stroke-opacity:1"/><path d="m45.158 111.75-.861 2.732s4.112 14.767 3.738 22.291c-.863 17.399-6.67 23.227-6.67 23.227h89.76l3.488-10.283-15.675-5.608-26.895.43-24.16-6.039-1.15-7.191 7.765-9.06-7.478-2.878-14.815-3.738z" style="fill:#f8c18c;stroke:none;stroke-width:1px;stroke-linecap:butt;stroke-linejoin:miter;stroke-opacity:1"/><path d="m45.158 111.75-.861 2.732s4.112 14.767 3.738 22.291c-.863 17.399-6.67 23.227-6.67 23.227h89.76l3.488-10.283-15.675-5.608-26.895.43-24.16-6.039-1.15-7.191 7.765-9.06-7.478-2.878-14.815-3.738z" style="fill:#ba6561;stroke:none;stroke-width:1px;stroke-linecap:butt;stroke-linejoin:miter;stroke-opacity:1;opacity:.25"/><path d="M63.28 133.467s2.59 6.56 2.59 12.512c0 6.943-4.335 12.037-6.33 14.021h40.286l14.223-4.098 3.594-7.478-1.87-4.315-28.906.287-23.588-10.93z" style="fill:#f8c18c;stroke:none;stroke-width:1px;stroke-linecap:butt;stroke-linejoin:miter;stroke-opacity:1"/><path d="M63.28 133.467s2.59 6.56 2.59 12.512c0 6.943-4.335 12.037-6.33 14.021h40.286l14.223-4.098 3.594-7.478-1.87-4.315-28.906.287z" style="fill:#ba6561;stroke:none;stroke-width:1px;stroke-linecap:butt;stroke-linejoin:miter;stroke-opacity:1;opacity:.5"/><path d="M50.625 108.873s-5.802.965-5.467 3.02c1.106 6.783 25.34 8.927 25.309 10.894-.042 2.59-8.13 6.552-7.13 11.223 1.658 7.738 11.017 10.343 19.645 12.226 17.422 3.804 33.56-.79 33.358 1.63-.272 3.232-5.582 3.552-8.746 4.269-7.604 1.723-15.624-.888-23.39-.203-14.61 1.287-25.643 6.29-29.188 8.068h60.922l.123-.072s19.309-3.88 18.41-11.217c-1.53-12.485-24.85-7.24-37.393-8.197-8.126-.62-22.664-1.1-25.744-7.192-1.948-3.852 8.063-7.205 6.473-11.218-1.768-4.461-22.121-4.555-27.614-10.067-.75-.754.432-3.164.432-3.164z" style="fill:#fcecdc;stroke:none;stroke-width:1px;stroke-linecap:butt;stroke-linejoin:miter;stroke-opacity:1"/><path d="M66.013 104.27V93.629L76.08 95.93s.837 6.122-2.733 8.054c-4.165 2.255-7.334.288-7.334.288zM85.284 93.197l2.733-13.807 11.074 8.486s.823 6.224-4.602 8.197c-6.16 2.24-9.205-2.876-9.205-2.876zM97.077 76.226l2.445-12.08 7.91 8.197s-.013 3.953-4.027 5.465c-4.056 1.528-6.328-1.582-6.328-1.582zM117.212 78.527l12.368-7.334 4.459 13.23s-3.688 6.238-10.5 3.596c-6.639-2.575-6.327-9.492-6.327-9.492zM149.427 78.384l14.094-5.61-3.164 12.944s-3.846 3.186-8.916-.575c-3.016-2.237-2.014-6.76-2.014-6.76zM157.913 101.394l10.786 2.59-7.479 7.19s-3.985-.252-5.177-4.458c-.81-2.858 1.87-5.322 1.87-5.322zM140.223 92.622l9.78-2.59.431 9.924s-4.43 1.993-7.766-.431c-3.337-2.425-2.445-6.903-2.445-6.903z" style="fill:#71a372;stroke:none;stroke-width:1px;stroke-linecap:butt;stroke-linejoin:miter;stroke-opacity:1"/><rect width="13.231" height="13.231" x="104.844" y="99.669" ry="6.616" style="opacity:1;vector-effect:none;fill:#71a372;fill-opacity:1;fill-rule:evenodd;stroke:none;stroke-width:4;stroke-linecap:round;stroke-linejoin:round;stroke-miterlimit:4;stroke-dasharray:none;paint-order:stroke fill markers"/><rect width="12.512" height="12.512" x="126.992" y="107.579" ry="6.256" style="opacity:1;vector-effect:none;fill:#71a372;fill-opacity:1;fill-rule:evenodd;stroke:none;stroke-width:4;stroke-linecap:round;stroke-linejoin:round;stroke-miterlimit:4;stroke-dasharray:none;paint-order:stroke fill markers"/><rect width="12.944" height="12.944" x="90.893" y="118.94" ry="6.472" style="opacity:1;vector-effect:none;fill:#71a372;fill-opacity:1;fill-rule:evenodd;stroke:none;stroke-width:4;stroke-linecap:round;stroke-linejoin:round;stroke-miterlimit:4;stroke-dasharray:none;paint-order:stroke fill markers"/><rect width="12.512" height="12.512" x="75.073" y="109.88" ry="6.256" style="opacity:1;vector-effect:none;fill:#71a372;fill-opacity:1;fill-rule:evenodd;stroke:none;stroke-width:4;stroke-linecap:round;stroke-linejoin:round;stroke-miterlimit:4;stroke-dasharray:none;paint-order:stroke fill markers"/><path d="M121.348 135.05a3.076 3.076 0 0 0-3.077 3.077 3.076 3.076 0 0 0 2.045 2.894c-.473.77-.974 2.051-1.027 4.098-.026 1.03-.017 2.212 2.236 2.135 1.411-.049 1.92-.825 1.932-1.678.03-2.061-.71-3.55-1.357-4.469a3.076 3.076 0 0 0 2.324-2.98 3.076 3.076 0 0 0-3.076-3.076z" style="opacity:1;vector-effect:none;fill:#ba6561;fill-opacity:1;fill-rule:evenodd;stroke:none;stroke-width:4;stroke-linecap:round;stroke-linejoin:round;stroke-miterlimit:4;stroke-dasharray:none;paint-order:stroke fill markers"/></svg>
